X:1
T:Magnificat in E-flat major
T:BWV 243a
T:J. S. Bach
%%score 1 2 3
L:1/8
Q:1/4=80
M:4/4
K:Bb
V:1 bass nm="Bariton"
V:2 bass nm="Organ"
V:3 bass nm="Violoncello"
V:1
"^5: Quia fecit mihi magna" z8 | z8 | z8 | z8 | z2 B,B, B,A,/B,/ CE, | D,B,, z2 z4 | z8 | z8 | %8
 z2 B,B, B,A,/B,/ CE, | D,B,, z F, E,/D,/E,/G,/ CE, | D,/C,/D,/F,/ B,D, C,D,/E,/ F,/G,/A,/F,/ | %11
 B,/C/D/C/ B,/A,/G,/F,/ CA,/F,/ C,=E, | F,2 z2 z4 | z2 F,F, F,=E,/F,/ G,B,, | %14
 A,,/G,,/A,,/C,/ F,/G,/A,/F,/ D,/C,/D,/F,/ B,/C/D/B,/ | CA,/F,/ D2- D/C/B,/A,/ G,/F,/C | %16
 F,A,B,C ^F,2 G,3/2A,/4B,/4 | A,D, z A, D/E/D/C/ B,/A,/G,/F,/ | E,/D,/C,/D,/ E,C CD, z B, | %19
 B,C,C,A, A,G,/^F,/ G,A,/B,/ | CD/E/ A,D B,A,/B,/ C/B,/A,/G,/ | %21
 _D/=D/_D/=D/ D3/2_D/4=D/4 =EA, z A, | D,/_D,/=E,/=D,/ F,/E,/G,/F,/ B,/A,/_D/=D/ A,_D | D,2 z2 z4 | %24
 z2 DA, B,G,=E,G, | C/B,/A,/G,/ F,E,/D,/ G,F,/G,/ A,G,/A,/ | B,B,, _A,G,/F,/ G,2- G,/E,/D,/E,/ | %27
 B,/A,/G,/F,/ B,/C/D DC .C2 | z B,/C/ D/C/E/D/ C/B,/A,/B,/ F,2 | B,,2 z2 z4 | z8 | z8 | z8 | z8 |] %34
V:2
 z2 B,B, B,A,/B,/ CE, | D,2 DD DC/D/ EG, | F,2 DF, E,2 CE, | D,2 B,/A,/G,/F,/ E,/D,/C,/B,,/ F,F,, | %4
 .B,,2 .D,2 .F,2 .F,,2 | .B,,2 DD DC/D/ EG, | F,2 DF, E,2 CE, | %7
 D,2 B,/A,/G,/F,/ E,/D,/C,/B,,/ F,F,, | .B,,2 .D,2 .F,2 .F,,2 | .B,,2 DD DC/D/ EG, | %10
 F,2 DF, E,2 CE, | D,2 B,/A,/G,/F,/ =E,F,C,C,, | F,,2 F,F, F,=E,/F,/ G,B,, | %13
 A,,2 A,A, A,G,/A,/ B,D, | C,2 A,C, B,,2 G,B,, | A,,2 F,/=E,/D,/C,/ B,,/A,,/G,,/F,,/ C,C,, | %16
 F,,2 z2 z2 G,G, | G,^F,/G,/ A,C, B,,2 B,B, | B,A,/B,/ CE, D,2 B,D, | C,2 A,C, B,,2 G,/F,/E,/D,/ | %20
 C,/B,,/A,,/G,,/ D,D,, G,,2 G,B,, | A,,2 F,A,, G,,2 =E,G,, | F,,2 D/C/B,/A,/ G,/F,/=E,/D,/ A,A,, | %23
 D,,2 D,D, D,_D,/=D,/ =E,G,, | F,,2 F,F, F,=E,/F,/ G,B,, | A,,2 B,B, B,A,/B,/ CE, | %26
 D,2 DD DC/D/ EG, | F,2 DF, E,2 CE, | D,2 B,/A,/G,/F,/ E,/D,/C,/B,,/ F,F,, | %29
 B,,2 B,B, B,A,/B,/ CE, | D,2 DD DC/D/ EG, | F,2 DF, E,2 CE, | %32
 D,2 B,/A,/G,/F,/ E,/D,/C,/B,,/ F,F,, | B,,8 |] %34
V:3
 z2 B,B, B,A,/B,/ CE, | D,2 DD DC/D/ EG, | F,2 DF, E,2 CE, | D,2 B,/A,/G,/F,/ E,/D,/C,/B,,/ F,F,, | %4
 .B,,2 .D,2 .F,2 .F,,2 | .B,,2 DD DC/D/ EG, | F,2 DF, E,2 CE, | %7
 D,2 B,/A,/G,/F,/ E,/D,/C,/B,,/ F,F,, | .B,,2 .D,2 .F,2 .F,,2 | .B,,2 DD DC/D/ EG, | %10
 F,2 DF, E,2 CE, | D,2 B,/A,/G,/F,/ =E,F,C,C,, | F,,2 F,F, F,=E,/F,/ G,B,, | %13
 A,,2 A,A, A,G,/A,/ B,D, | C,2 A,C, B,,2 G,B,, | A,,2 F,/=E,/D,/C,/ B,,/A,,/G,,/F,,/ C,C,, | %16
 F,,2 z2 z2 G,G, | G,^F,/G,/ A,C, B,,2 B,B, | B,A,/B,/ CE, D,2 B,D, | C,2 A,C, B,,2 G,/F,/E,/D,/ | %20
 C,/B,,/A,,/G,,/ D,D,, G,,2 G,B,, | A,,2 F,A,, G,,2 =E,G,, | F,,2 D/C/B,/A,/ G,/F,/=E,/D,/ A,A,, | %23
 D,,2 D,D, D,_D,/=D,/ =E,G,, | F,,2 F,F, F,=E,/F,/ G,B,, | A,,2 B,B, B,A,/B,/ CE, | %26
 D,2 DD DC/D/ EG, | F,2 DF, E,2 CE, | D,2 B,/A,/G,/F,/ E,/D,/C,/B,,/ F,F,, | %29
 B,,2 B,B, B,A,/B,/ CE, | D,2 DD DC/D/ EG, | F,2 DF, E,2 CE, | %32
 D,2 B,/A,/G,/F,/ E,/D,/C,/B,,/ F,F,, | B,,8 |] %34

